%%%
  VERSION:1
  LANGUAGE:ENGLISH
%%%

MODULE m2D_Contour75
  PROC p2D_Contour75()
    ! MoveAbsJ [[0,0,5,-70,40,70],[9E9,9E9,9E9,9E9,9E9,9E9]]\NoEOffs,v800,fine,tADSK27;
    MoveL [[568.789,-140.133,16],[0,-0.25881905,0.96592583,0],[0,0,0,0],[9E9,9E9,9E9,9E9,9E9,9E9]],v800,z1,tADSK27\WObj:=wADSK0;
    MoveL [[568.789,-140.133,6],[0,-0.25881905,0.96592583,0],[0,0,0,0],[9E9,9E9,9E9,9E9,9E9,9E9]],v800,z1,tADSK27\WObj:=wADSK0;
    ! Plunge Move Starts
    MoveL [[568.789,-140.133,2],[0,-0.25881905,0.96592583,0],[0,0,0,0],[9E9,9E9,9E9,9E9,9E9,9E9]],v25,z1,tADSK27\WObj:=wADSK0;
    MoveL [[568.789,-140.133,-9.573],[0,-0.25881905,0.96592583,0],[0,0,0,0],[9E9,9E9,9E9,9E9,9E9,9E9]],v25,z1,tADSK27\WObj:=wADSK0;
    ! Lead In Move Starts
    MoveL [[568.51,-140.133,-10.246],[0,-0.25881905,0.96592583,0],[0,0,0,0],[9E9,9E9,9E9,9E9,9E9,9E9]],v75,z1,tADSK27\WObj:=wADSK0;
    MoveL [[567.836,-140.133,-10.525],[0,-0.25881905,0.96592583,0],[0,0,0,0],[9E9,9E9,9E9,9E9,9E9,9E9]],v75,z1,tADSK27\WObj:=wADSK0;
    MoveL [[566.884,-140.133,-10.525],[0,-0.25881905,0.96592583,0],[0,0,0,0],[9E9,9E9,9E9,9E9,9E9,9E9]],v75,z1,tADSK27\WObj:=wADSK0;
    MoveL [[566.21,-140.412,-10.525],[0,-0.25881905,0.96592583,0],[0,0,0,0],[9E9,9E9,9E9,9E9,9E9,9E9]],v75,z1,tADSK27\WObj:=wADSK0;
    MoveL [[565.932,-141.086,-10.525],[0,-0.25881905,0.96592583,0],[0,0,0,0],[9E9,9E9,9E9,9E9,9E9,9E9]],v75,z1,tADSK27\WObj:=wADSK0;
    ! Cutting Move Starts
    MoveL [[565.932,-1098.99,-10.525],[0,-0.25881905,0.96592583,0],[0,0,0,0],[9E9,9E9,9E9,9E9,9E9,9E9]],v75,z1,tADSK27\WObj:=wADSK0;
    MoveL [[565.569,-1100.813,-10.525],[0,-0.25881905,0.96592583,0],[0,0,0,0],[9E9,9E9,9E9,9E9,9E9,9E9]],v75,z1,tADSK27\WObj:=wADSK0;
    MoveL [[564.537,-1102.358,-10.525],[0,-0.25881905,0.96592583,0],[0,0,0,0],[9E9,9E9,9E9,9E9,9E9,9E9]],v75,z1,tADSK27\WObj:=wADSK0;
    MoveL [[562.992,-1103.39,-10.525],[0,-0.25881905,0.96592583,0],[0,0,0,0],[9E9,9E9,9E9,9E9,9E9,9E9]],v75,z1,tADSK27\WObj:=wADSK0;
    MoveL [[561.169,-1103.752,-10.525],[0,-0.25881905,0.96592583,0],[0,0,0,0],[9E9,9E9,9E9,9E9,9E9,9E9]],v75,z1,tADSK27\WObj:=wADSK0;
    MoveL [[65.869,-1103.752,-10.525],[0,-0.25881905,0.96592583,0],[0,0,0,0],[9E9,9E9,9E9,9E9,9E9,9E9]],v75,z1,tADSK27\WObj:=wADSK0;
    MoveL [[64.047,-1103.39,-10.525],[0,-0.25881905,0.96592583,0],[0,0,0,0],[9E9,9E9,9E9,9E9,9E9,9E9]],v75,z1,tADSK27\WObj:=wADSK0;
    MoveL [[62.502,-1102.358,-10.525],[0,-0.25881905,0.96592583,0],[0,0,0,0],[9E9,9E9,9E9,9E9,9E9,9E9]],v75,z1,tADSK27\WObj:=wADSK0;
    MoveL [[61.469,-1100.813,-10.525],[0,-0.25881905,0.96592583,0],[0,0,0,0],[9E9,9E9,9E9,9E9,9E9,9E9]],v75,z1,tADSK27\WObj:=wADSK0;
    MoveL [[61.107,-1098.99,-10.525],[0,-0.25881905,0.96592583,0],[0,0,0,0],[9E9,9E9,9E9,9E9,9E9,9E9]],v75,z1,tADSK27\WObj:=wADSK0;
    MoveL [[61.107,-108.39,-10.525],[0,-0.25881905,0.96592583,0],[0,0,0,0],[9E9,9E9,9E9,9E9,9E9,9E9]],v75,z1,tADSK27\WObj:=wADSK0;
    MoveL [[61.469,-106.567,-10.525],[0,-0.25881905,0.96592583,0],[0,0,0,0],[9E9,9E9,9E9,9E9,9E9,9E9]],v75,z1,tADSK27\WObj:=wADSK0;
    MoveL [[62.502,-105.022,-10.525],[0,-0.25881905,0.96592583,0],[0,0,0,0],[9E9,9E9,9E9,9E9,9E9,9E9]],v75,z1,tADSK27\WObj:=wADSK0;
    MoveL [[64.047,-103.99,-10.525],[0,-0.25881905,0.96592583,0],[0,0,0,0],[9E9,9E9,9E9,9E9,9E9,9E9]],v75,z1,tADSK27\WObj:=wADSK0;
    MoveL [[65.869,-103.628,-10.525],[0,-0.25881905,0.96592583,0],[0,0,0,0],[9E9,9E9,9E9,9E9,9E9,9E9]],v75,z1,tADSK27\WObj:=wADSK0;
    MoveL [[561.169,-103.628,-10.525],[0,-0.25881905,0.96592583,0],[0,0,0,0],[9E9,9E9,9E9,9E9,9E9,9E9]],v75,z1,tADSK27\WObj:=wADSK0;
    MoveL [[562.992,-103.99,-10.525],[0,-0.25881905,0.96592583,0],[0,0,0,0],[9E9,9E9,9E9,9E9,9E9,9E9]],v75,z1,tADSK27\WObj:=wADSK0;
    MoveL [[564.537,-105.022,-10.525],[0,-0.25881905,0.96592583,0],[0,0,0,0],[9E9,9E9,9E9,9E9,9E9,9E9]],v75,z1,tADSK27\WObj:=wADSK0;
    MoveL [[565.569,-106.567,-10.525],[0,-0.25881905,0.96592583,0],[0,0,0,0],[9E9,9E9,9E9,9E9,9E9,9E9]],v75,z1,tADSK27\WObj:=wADSK0;
    MoveL [[565.932,-108.39,-10.525],[0,-0.25881905,0.96592583,0],[0,0,0,0],[9E9,9E9,9E9,9E9,9E9,9E9]],v75,z1,tADSK27\WObj:=wADSK0;
    MoveL [[565.932,-141.086,-10.525],[0,-0.25881905,0.96592583,0],[0,0,0,0],[9E9,9E9,9E9,9E9,9E9,9E9]],v75,z1,tADSK27\WObj:=wADSK0;
    ! Lead Out Move Starts
    MoveL [[566.21,-141.76,-10.525],[0,-0.25881905,0.96592583,0],[0,0,0,0],[9E9,9E9,9E9,9E9,9E9,9E9]],v75,z1,tADSK27\WObj:=wADSK0;
    MoveL [[566.884,-142.038,-10.525],[0,-0.25881905,0.96592583,0],[0,0,0,0],[9E9,9E9,9E9,9E9,9E9,9E9]],v75,z1,tADSK27\WObj:=wADSK0;
    MoveL [[567.836,-142.038,-10.525],[0,-0.25881905,0.96592583,0],[0,0,0,0],[9E9,9E9,9E9,9E9,9E9,9E9]],v75,z1,tADSK27\WObj:=wADSK0;
    MoveL [[568.51,-142.038,-10.246],[0,-0.25881905,0.96592583,0],[0,0,0,0],[9E9,9E9,9E9,9E9,9E9,9E9]],v75,z1,tADSK27\WObj:=wADSK0;
    MoveL [[568.789,-142.038,-9.573],[0,-0.25881905,0.96592583,0],[0,0,0,0],[9E9,9E9,9E9,9E9,9E9,9E9]],v75,z1,tADSK27\WObj:=wADSK0;
    ! Rapid Move Starts
    MoveL [[568.789,-142.038,16],[0,-0.25881905,0.96592583,0],[0,0,0,0],[9E9,9E9,9E9,9E9,9E9,9E9]],v800,z1,tADSK27\WObj:=wADSK0;

    MoveL [[568.789,-142.038,216],[0,-0.25881905,0.96592583,0],[0,0,0,0],[9E9,9E9,9E9,9E9,9E9,9E9]],v800,z1,tADSK27\WObj:=wADSK0;
    MoveAbsJ [[0,0,5,-70,40,70],[9E9,9E9,9E9,9E9,9E9,9E9]]\NoEOffs,v800,fine,tADSK27;

  ENDPROC
ENDMODULE
