%%%
  VERSION:1
  LANGUAGE:ENGLISH
%%%

MODULE m2D_Contour72
  PROC p2D_Contour72()


VAR num fk; 

TPErase;
    
    TPReadFK fk,"Please load 1 sheet of plywood...","Complete","","","","Stop";
    
    IF fk <> 1 THEN
        Stop;
    ENDIF



    MoveAbsJ [[170, -20, 30, 00, 80, 0],[9E9,9E9,9E9,9E9,9E9,9E9]],v333,z1,tADSK27\WObj:=wADSK0;
    MoveL [[1216.2,-691.942,50],[0,-0.25881905,0.96592583,0],[0,0,0,0],[9E9,9E9,9E9,9E9,9E9,9E9]],v333,z1,tADSK27\WObj:=wADSK0;
    MoveL [[1216.2,-691.942,50],[0,-0.25881905,0.96592583,0],[0,0,0,0],[9E9,9E9,9E9,9E9,9E9,9E9]],v333,z1,tADSK27\WObj:=wADSK0;

    ! Spindle ON
    ! setdo Local_IO_0_DO11, 1;

    TPReadFK fk,"Make sure the spindle is running in the right rpm...","Confirm","","","","Stop";
    
    IF fk <> 1 THEN
        Stop;
    ENDIF


    ! Plunge Move Starts
    MoveL [[1216.2,-691.942,2],[0,-0.25881905,0.96592583,0],[0,0,0,0],[9E9,9E9,9E9,9E9,9E9,9E9]],v25,z1,tADSK27\WObj:=wADSK0;
    MoveL [[1216.2,-691.942,-9.573],[0,-0.25881905,0.96592583,0],[0,0,0,0],[9E9,9E9,9E9,9E9,9E9,9E9]],v25,z1,tADSK27\WObj:=wADSK0;
    ! Lead In Move Starts
    MoveL [[1215.921,-691.942,-10.246],[0,-0.25881905,0.96592583,0],[0,0,0,0],[9E9,9E9,9E9,9E9,9E9,9E9]],v75,z1,tADSK27\WObj:=wADSK0;
    MoveL [[1215.248,-691.942,-10.525],[0,-0.25881905,0.96592583,0],[0,0,0,0],[9E9,9E9,9E9,9E9,9E9,9E9]],v75,z1,tADSK27\WObj:=wADSK0;
    MoveL [[1214.295,-691.942,-10.525],[0,-0.25881905,0.96592583,0],[0,0,0,0],[9E9,9E9,9E9,9E9,9E9,9E9]],v75,z1,tADSK27\WObj:=wADSK0;
    MoveL [[1213.622,-692.22,-10.525],[0,-0.25881905,0.96592583,0],[0,0,0,0],[9E9,9E9,9E9,9E9,9E9,9E9]],v75,z1,tADSK27\WObj:=wADSK0;
    MoveL [[1213.343,-692.894,-10.525],[0,-0.25881905,0.96592583,0],[0,0,0,0],[9E9,9E9,9E9,9E9,9E9,9E9]],v75,z1,tADSK27\WObj:=wADSK0;
    ! Cutting Move Starts
    MoveL [[1213.343,-1125.818,-10.525],[0,-0.25881905,0.96592583,0],[0,0,0,0],[9E9,9E9,9E9,9E9,9E9,9E9]],v75,z1,tADSK27\WObj:=wADSK0;
    MoveL [[1514.968,-1125.818,-10.525],[0,-0.25881905,0.96592583,0],[0,0,0,0],[9E9,9E9,9E9,9E9,9E9,9E9]],v75,z1,tADSK27\WObj:=wADSK0;
    MoveL [[1514.968,-668.62,-10.525],[0,-0.25881905,0.96592583,0],[0,0,0,0],[9E9,9E9,9E9,9E9,9E9,9E9]],v75,z1,tADSK27\WObj:=wADSK0;
    MoveL [[1213.343,-668.62,-10.525],[0,-0.25881905,0.96592583,0],[0,0,0,0],[9E9,9E9,9E9,9E9,9E9,9E9]],v75,z1,tADSK27\WObj:=wADSK0;
    MoveL [[1213.343,-692.894,-10.525],[0,-0.25881905,0.96592583,0],[0,0,0,0],[9E9,9E9,9E9,9E9,9E9,9E9]],v75,z1,tADSK27\WObj:=wADSK0;
    ! Lead Out Move Starts
    MoveL [[1213.622,-693.568,-10.525],[0,-0.25881905,0.96592583,0],[0,0,0,0],[9E9,9E9,9E9,9E9,9E9,9E9]],v75,z1,tADSK27\WObj:=wADSK0;
    MoveL [[1214.295,-693.846,-10.525],[0,-0.25881905,0.96592583,0],[0,0,0,0],[9E9,9E9,9E9,9E9,9E9,9E9]],v75,z1,tADSK27\WObj:=wADSK0;
    MoveL [[1215.248,-693.846,-10.525],[0,-0.25881905,0.96592583,0],[0,0,0,0],[9E9,9E9,9E9,9E9,9E9,9E9]],v75,z1,tADSK27\WObj:=wADSK0;
    MoveL [[1215.921,-693.846,-10.246],[0,-0.25881905,0.96592583,0],[0,0,0,0],[9E9,9E9,9E9,9E9,9E9,9E9]],v75,z1,tADSK27\WObj:=wADSK0;
    MoveL [[1216.2,-693.846,-9.573],[0,-0.25881905,0.96592583,0],[0,0,0,0],[9E9,9E9,9E9,9E9,9E9,9E9]],v75,z1,tADSK27\WObj:=wADSK0;
    ! Rapid Move Starts
    MoveL [[1216.2,-693.846,6],[0,-0.25881905,0.96592583,0],[0,0,0,0],[9E9,9E9,9E9,9E9,9E9,9E9]],v333,z1,tADSK27\WObj:=wADSK0;
    MoveL [[1184.988,-618.138,6],[0,-0.25881905,0.96592583,0],[0,0,0,0],[9E9,9E9,9E9,9E9,9E9,9E9]],v333,z1,tADSK27\WObj:=wADSK0;
    ! Plunge Move Starts
    MoveL [[1184.988,-618.138,2],[0,-0.25881905,0.96592583,0],[0,0,0,0],[9E9,9E9,9E9,9E9,9E9,9E9]],v25,z1,tADSK27\WObj:=wADSK0;
    MoveL [[1184.988,-618.138,-9.573],[0,-0.25881905,0.96592583,0],[0,0,0,0],[9E9,9E9,9E9,9E9,9E9,9E9]],v25,z1,tADSK27\WObj:=wADSK0;
    ! Lead In Move Starts
    MoveL [[1184.988,-618.417,-10.246],[0,-0.25881905,0.96592583,0],[0,0,0,0],[9E9,9E9,9E9,9E9,9E9,9E9]],v75,z1,tADSK27\WObj:=wADSK0;
    MoveL [[1184.988,-619.091,-10.525],[0,-0.25881905,0.96592583,0],[0,0,0,0],[9E9,9E9,9E9,9E9,9E9,9E9]],v75,z1,tADSK27\WObj:=wADSK0;
    MoveL [[1184.988,-620.043,-10.525],[0,-0.25881905,0.96592583,0],[0,0,0,0],[9E9,9E9,9E9,9E9,9E9,9E9]],v75,z1,tADSK27\WObj:=wADSK0;
    MoveL [[1185.266,-620.716,-10.525],[0,-0.25881905,0.96592583,0],[0,0,0,0],[9E9,9E9,9E9,9E9,9E9,9E9]],v75,z1,tADSK27\WObj:=wADSK0;
    MoveL [[1185.94,-620.995,-10.525],[0,-0.25881905,0.96592583,0],[0,0,0,0],[9E9,9E9,9E9,9E9,9E9,9E9]],v75,z1,tADSK27\WObj:=wADSK0;
    ! Cutting Move Starts
    MoveL [[2383.33,-620.995,-10.525],[0,-0.25881905,0.96592583,0],[0,0,0,0],[9E9,9E9,9E9,9E9,9E9,9E9]],v75,z1,tADSK27\WObj:=wADSK0;
    MoveL [[2385.153,-621.358,-10.525],[0,-0.25881905,0.96592583,0],[0,0,0,0],[9E9,9E9,9E9,9E9,9E9,9E9]],v75,z1,tADSK27\WObj:=wADSK0;
    MoveL [[2386.698,-622.39,-10.525],[0,-0.25881905,0.96592583,0],[0,0,0,0],[9E9,9E9,9E9,9E9,9E9,9E9]],v75,z1,tADSK27\WObj:=wADSK0;
    MoveL [[2387.73,-623.935,-10.525],[0,-0.25881905,0.96592583,0],[0,0,0,0],[9E9,9E9,9E9,9E9,9E9,9E9]],v75,z1,tADSK27\WObj:=wADSK0;
    MoveL [[2388.093,-625.758,-10.525],[0,-0.25881905,0.96592583,0],[0,0,0,0],[9E9,9E9,9E9,9E9,9E9,9E9]],v75,z1,tADSK27\WObj:=wADSK0;
    MoveL [[2388.093,-1168.68,-10.525],[0,-0.25881905,0.96592583,0],[0,0,0,0],[9E9,9E9,9E9,9E9,9E9,9E9]],v75,z1,tADSK27\WObj:=wADSK0;
    MoveL [[2387.73,-1170.503,-10.525],[0,-0.25881905,0.96592583,0],[0,0,0,0],[9E9,9E9,9E9,9E9,9E9,9E9]],v75,z1,tADSK27\WObj:=wADSK0;
    MoveL [[2386.698,-1172.048,-10.525],[0,-0.25881905,0.96592583,0],[0,0,0,0],[9E9,9E9,9E9,9E9,9E9,9E9]],v75,z1,tADSK27\WObj:=wADSK0;
    MoveL [[2385.153,-1173.08,-10.525],[0,-0.25881905,0.96592583,0],[0,0,0,0],[9E9,9E9,9E9,9E9,9E9,9E9]],v75,z1,tADSK27\WObj:=wADSK0;
    MoveL [[2383.33,-1173.443,-10.525],[0,-0.25881905,0.96592583,0],[0,0,0,0],[9E9,9E9,9E9,9E9,9E9,9E9]],v75,z1,tADSK27\WObj:=wADSK0;
    MoveL [[1170.48,-1173.443,-10.525],[0,-0.25881905,0.96592583,0],[0,0,0,0],[9E9,9E9,9E9,9E9,9E9,9E9]],v75,z1,tADSK27\WObj:=wADSK0;
    MoveL [[1168.657,-1173.08,-10.525],[0,-0.25881905,0.96592583,0],[0,0,0,0],[9E9,9E9,9E9,9E9,9E9,9E9]],v75,z1,tADSK27\WObj:=wADSK0;
    MoveL [[1167.112,-1172.048,-10.525],[0,-0.25881905,0.96592583,0],[0,0,0,0],[9E9,9E9,9E9,9E9,9E9,9E9]],v75,z1,tADSK27\WObj:=wADSK0;
    MoveL [[1166.08,-1170.503,-10.525],[0,-0.25881905,0.96592583,0],[0,0,0,0],[9E9,9E9,9E9,9E9,9E9,9E9]],v75,z1,tADSK27\WObj:=wADSK0;
    MoveL [[1165.718,-1168.68,-10.525],[0,-0.25881905,0.96592583,0],[0,0,0,0],[9E9,9E9,9E9,9E9,9E9,9E9]],v75,z1,tADSK27\WObj:=wADSK0;
    MoveL [[1165.718,-625.758,-10.525],[0,-0.25881905,0.96592583,0],[0,0,0,0],[9E9,9E9,9E9,9E9,9E9,9E9]],v75,z1,tADSK27\WObj:=wADSK0;
    MoveL [[1166.08,-623.935,-10.525],[0,-0.25881905,0.96592583,0],[0,0,0,0],[9E9,9E9,9E9,9E9,9E9,9E9]],v75,z1,tADSK27\WObj:=wADSK0;
    MoveL [[1167.112,-622.39,-10.525],[0,-0.25881905,0.96592583,0],[0,0,0,0],[9E9,9E9,9E9,9E9,9E9,9E9]],v75,z1,tADSK27\WObj:=wADSK0;
    MoveL [[1168.657,-621.358,-10.525],[0,-0.25881905,0.96592583,0],[0,0,0,0],[9E9,9E9,9E9,9E9,9E9,9E9]],v75,z1,tADSK27\WObj:=wADSK0;
    MoveL [[1170.48,-620.995,-10.525],[0,-0.25881905,0.96592583,0],[0,0,0,0],[9E9,9E9,9E9,9E9,9E9,9E9]],v75,z1,tADSK27\WObj:=wADSK0;
    MoveL [[1185.94,-620.995,-10.525],[0,-0.25881905,0.96592583,0],[0,0,0,0],[9E9,9E9,9E9,9E9,9E9,9E9]],v75,z1,tADSK27\WObj:=wADSK0;
    ! Lead Out Move Starts
    MoveL [[1186.613,-620.717,-10.525],[0,-0.25881905,0.96592583,0],[0,0,0,0],[9E9,9E9,9E9,9E9,9E9,9E9]],v75,z1,tADSK27\WObj:=wADSK0;
    MoveL [[1186.892,-620.043,-10.525],[0,-0.25881905,0.96592583,0],[0,0,0,0],[9E9,9E9,9E9,9E9,9E9,9E9]],v75,z1,tADSK27\WObj:=wADSK0;
    MoveL [[1186.892,-619.091,-10.525],[0,-0.25881905,0.96592583,0],[0,0,0,0],[9E9,9E9,9E9,9E9,9E9,9E9]],v75,z1,tADSK27\WObj:=wADSK0;
    MoveL [[1186.892,-618.417,-10.246],[0,-0.25881905,0.96592583,0],[0,0,0,0],[9E9,9E9,9E9,9E9,9E9,9E9]],v75,z1,tADSK27\WObj:=wADSK0;
    MoveL [[1186.892,-618.138,50],[0,-0.25881905,0.96592583,0],[0,0,0,0],[9E9,9E9,9E9,9E9,9E9,9E9]],v75,z1,tADSK27\WObj:=wADSK0;
    ! Rapid Move Starts
    MoveL [[1186.892,-618.138,50],[0,-0.25881905,0.96592583,0],[0,0,0,0],[9E9,9E9,9E9,9E9,9E9,9E9]],v333,z1,tADSK27\WObj:=wADSK0;
  ENDPROC
ENDMODULE
