%%%
  VERSION:1
  LANGUAGE:ENGLISH
%%%

MODULE m2D_Contour74
  PROC p2D_Contour74()
    ! MoveAbsJ [[0,0,5,-70,40,70],[9E9,9E9,9E9,9E9,9E9,9E9]]\NoEOffs,v800,fine,tADSK27;
    MoveL [[1112.3,-132.518,16],[0,-0.25881905,0.96592583,0],[0,0,0,0],[9E9,9E9,9E9,9E9,9E9,9E9]],v800,z1,tADSK27\WObj:=wADSK0;
    MoveL [[1112.3,-132.518,6],[0,-0.25881905,0.96592583,0],[0,0,0,0],[9E9,9E9,9E9,9E9,9E9,9E9]],v800,z1,tADSK27\WObj:=wADSK0;
    ! Plunge Move Starts
    MoveL [[1112.3,-132.518,2],[0,-0.25881905,0.96592583,0],[0,0,0,0],[9E9,9E9,9E9,9E9,9E9,9E9]],v25,z1,tADSK27\WObj:=wADSK0;
    MoveL [[1112.3,-132.518,-9.573],[0,-0.25881905,0.96592583,0],[0,0,0,0],[9E9,9E9,9E9,9E9,9E9,9E9]],v25,z1,tADSK27\WObj:=wADSK0;
    ! Lead In Move Starts
    MoveL [[1112.021,-132.518,-10.246],[0,-0.25881905,0.96592583,0],[0,0,0,0],[9E9,9E9,9E9,9E9,9E9,9E9]],v75,z1,tADSK27\WObj:=wADSK0;
    MoveL [[1111.348,-132.518,-10.525],[0,-0.25881905,0.96592583,0],[0,0,0,0],[9E9,9E9,9E9,9E9,9E9,9E9]],v75,z1,tADSK27\WObj:=wADSK0;
    MoveL [[1110.395,-132.518,-10.525],[0,-0.25881905,0.96592583,0],[0,0,0,0],[9E9,9E9,9E9,9E9,9E9,9E9]],v75,z1,tADSK27\WObj:=wADSK0;
    MoveL [[1109.721,-132.797,-10.525],[0,-0.25881905,0.96592583,0],[0,0,0,0],[9E9,9E9,9E9,9E9,9E9,9E9]],v75,z1,tADSK27\WObj:=wADSK0;
    MoveL [[1109.443,-133.471,-10.525],[0,-0.25881905,0.96592583,0],[0,0,0,0],[9E9,9E9,9E9,9E9,9E9,9E9]],v75,z1,tADSK27\WObj:=wADSK0;
    ! Cutting Move Starts
    MoveL [[1109.443,-1099.34,-10.525],[0,-0.25881905,0.96592583,0],[0,0,0,0],[9E9,9E9,9E9,9E9,9E9,9E9]],v75,z1,tADSK27\WObj:=wADSK0;
    MoveL [[1109.08,-1101.162,-10.525],[0,-0.25881905,0.96592583,0],[0,0,0,0],[9E9,9E9,9E9,9E9,9E9,9E9]],v75,z1,tADSK27\WObj:=wADSK0;
    MoveL [[1108.048,-1102.708,-10.525],[0,-0.25881905,0.96592583,0],[0,0,0,0],[9E9,9E9,9E9,9E9,9E9,9E9]],v75,z1,tADSK27\WObj:=wADSK0;
    MoveL [[1106.503,-1103.74,-10.525],[0,-0.25881905,0.96592583,0],[0,0,0,0],[9E9,9E9,9E9,9E9,9E9,9E9]],v75,z1,tADSK27\WObj:=wADSK0;
    MoveL [[1104.68,-1104.103,-10.525],[0,-0.25881905,0.96592583,0],[0,0,0,0],[9E9,9E9,9E9,9E9,9E9,9E9]],v75,z1,tADSK27\WObj:=wADSK0;
    MoveL [[609.376,-1104.103,-10.525],[0,-0.25881905,0.96592583,0],[0,0,0,0],[9E9,9E9,9E9,9E9,9E9,9E9]],v75,z1,tADSK27\WObj:=wADSK0;
    MoveL [[607.553,-1103.74,-10.525],[0,-0.25881905,0.96592583,0],[0,0,0,0],[9E9,9E9,9E9,9E9,9E9,9E9]],v75,z1,tADSK27\WObj:=wADSK0;
    MoveL [[606.008,-1102.708,-10.525],[0,-0.25881905,0.96592583,0],[0,0,0,0],[9E9,9E9,9E9,9E9,9E9,9E9]],v75,z1,tADSK27\WObj:=wADSK0;
    MoveL [[604.976,-1101.162,-10.525],[0,-0.25881905,0.96592583,0],[0,0,0,0],[9E9,9E9,9E9,9E9,9E9,9E9]],v75,z1,tADSK27\WObj:=wADSK0;
    MoveL [[604.614,-1099.34,-10.525],[0,-0.25881905,0.96592583,0],[0,0,0,0],[9E9,9E9,9E9,9E9,9E9,9E9]],v75,z1,tADSK27\WObj:=wADSK0;
    MoveL [[604.614,-108.744,-10.525],[0,-0.25881905,0.96592583,0],[0,0,0,0],[9E9,9E9,9E9,9E9,9E9,9E9]],v75,z1,tADSK27\WObj:=wADSK0;
    MoveL [[604.976,-106.921,-10.525],[0,-0.25881905,0.96592583,0],[0,0,0,0],[9E9,9E9,9E9,9E9,9E9,9E9]],v75,z1,tADSK27\WObj:=wADSK0;
    MoveL [[606.008,-105.376,-10.525],[0,-0.25881905,0.96592583,0],[0,0,0,0],[9E9,9E9,9E9,9E9,9E9,9E9]],v75,z1,tADSK27\WObj:=wADSK0;
    MoveL [[607.553,-104.344,-10.525],[0,-0.25881905,0.96592583,0],[0,0,0,0],[9E9,9E9,9E9,9E9,9E9,9E9]],v75,z1,tADSK27\WObj:=wADSK0;
    MoveL [[609.376,-103.981,-10.525],[0,-0.25881905,0.96592583,0],[0,0,0,0],[9E9,9E9,9E9,9E9,9E9,9E9]],v75,z1,tADSK27\WObj:=wADSK0;
    MoveL [[1104.68,-103.981,-10.525],[0,-0.25881905,0.96592583,0],[0,0,0,0],[9E9,9E9,9E9,9E9,9E9,9E9]],v75,z1,tADSK27\WObj:=wADSK0;
    MoveL [[1106.503,-104.344,-10.525],[0,-0.25881905,0.96592583,0],[0,0,0,0],[9E9,9E9,9E9,9E9,9E9,9E9]],v75,z1,tADSK27\WObj:=wADSK0;
    MoveL [[1108.048,-105.376,-10.525],[0,-0.25881905,0.96592583,0],[0,0,0,0],[9E9,9E9,9E9,9E9,9E9,9E9]],v75,z1,tADSK27\WObj:=wADSK0;
    MoveL [[1109.08,-106.921,-10.525],[0,-0.25881905,0.96592583,0],[0,0,0,0],[9E9,9E9,9E9,9E9,9E9,9E9]],v75,z1,tADSK27\WObj:=wADSK0;
    MoveL [[1109.443,-108.744,-10.525],[0,-0.25881905,0.96592583,0],[0,0,0,0],[9E9,9E9,9E9,9E9,9E9,9E9]],v75,z1,tADSK27\WObj:=wADSK0;
    MoveL [[1109.443,-133.471,-10.525],[0,-0.25881905,0.96592583,0],[0,0,0,0],[9E9,9E9,9E9,9E9,9E9,9E9]],v75,z1,tADSK27\WObj:=wADSK0;
    ! Lead Out Move Starts
    MoveL [[1109.721,-134.145,-10.525],[0,-0.25881905,0.96592583,0],[0,0,0,0],[9E9,9E9,9E9,9E9,9E9,9E9]],v75,z1,tADSK27\WObj:=wADSK0;
    MoveL [[1110.395,-134.423,-10.525],[0,-0.25881905,0.96592583,0],[0,0,0,0],[9E9,9E9,9E9,9E9,9E9,9E9]],v75,z1,tADSK27\WObj:=wADSK0;
    MoveL [[1111.348,-134.423,-10.525],[0,-0.25881905,0.96592583,0],[0,0,0,0],[9E9,9E9,9E9,9E9,9E9,9E9]],v75,z1,tADSK27\WObj:=wADSK0;
    MoveL [[1112.021,-134.423,-10.246],[0,-0.25881905,0.96592583,0],[0,0,0,0],[9E9,9E9,9E9,9E9,9E9,9E9]],v75,z1,tADSK27\WObj:=wADSK0;
    MoveL [[1112.3,-134.423,-9.573],[0,-0.25881905,0.96592583,0],[0,0,0,0],[9E9,9E9,9E9,9E9,9E9,9E9]],v75,z1,tADSK27\WObj:=wADSK0;
    ! Rapid Move Starts
    MoveL [[1112.3,-134.423,16],[0,-0.25881905,0.96592583,0],[0,0,0,0],[9E9,9E9,9E9,9E9,9E9,9E9]],v800,z1,tADSK27\WObj:=wADSK0;
  ENDPROC
ENDMODULE
