%%%
  VERSION:1
  LANGUAGE:ENGLISH
%%%

MODULE m2D_Contour59
  PROC p2D_Contour59()
    MoveAbsJ [[0,0,5,-70,40,70],[9E9,9E9,9E9,9E9,9E9,9E9]]\NoEOffs,v17,fine,tADSK23;
    MoveL [[571.017,-183.865,25.525],[0,-0.25881905,0.96592583,0],[0,0,0,0],[9E9,9E9,9E9,9E9,9E9,9E9]],v17,z1,tADSK23\WObj:=wADSK0;
    MoveL [[571.017,-183.865,15.525],[0,-0.25881905,0.96592583,0],[0,0,0,0],[9E9,9E9,9E9,9E9,9E9,9E9]],v17,z1,tADSK23\WObj:=wADSK0;
    ! Plunge Move Starts
    MoveL [[571.017,-183.865,11.525],[0,-0.25881905,0.96592583,0],[0,0,0,0],[9E9,9E9,9E9,9E9,9E9,9E9]],v38,z1,tADSK23\WObj:=wADSK0;
    MoveL [[571.017,-183.865,-0.048],[0,-0.25881905,0.96592583,0],[0,0,0,0],[9E9,9E9,9E9,9E9,9E9,9E9]],v38,z1,tADSK23\WObj:=wADSK0;
    ! Lead In Move Starts
    MoveL [[570.738,-183.865,-0.721],[0,-0.25881905,0.96592583,0],[0,0,0,0],[9E9,9E9,9E9,9E9,9E9,9E9]],v114,z1,tADSK23\WObj:=wADSK0;
    MoveL [[570.065,-183.865,-1],[0,-0.25881905,0.96592583,0],[0,0,0,0],[9E9,9E9,9E9,9E9,9E9,9E9]],v114,z1,tADSK23\WObj:=wADSK0;
    MoveL [[569.112,-183.865,-1],[0,-0.25881905,0.96592583,0],[0,0,0,0],[9E9,9E9,9E9,9E9,9E9,9E9]],v114,z1,tADSK23\WObj:=wADSK0;
    MoveL [[568.438,-184.144,-1],[0,-0.25881905,0.96592583,0],[0,0,0,0],[9E9,9E9,9E9,9E9,9E9,9E9]],v114,z1,tADSK23\WObj:=wADSK0;
    MoveL [[568.159,-184.818,-1],[0,-0.25881905,0.96592583,0],[0,0,0,0],[9E9,9E9,9E9,9E9,9E9,9E9]],v114,z1,tADSK23\WObj:=wADSK0;
    ! Cutting Move Starts
    MoveL [[568.159,-1128.37,-1],[0,-0.25881905,0.96592583,0],[0,0,0,0],[9E9,9E9,9E9,9E9,9E9,9E9]],v114,z1,tADSK23\WObj:=wADSK0;
    MoveL [[567.797,-1130.193,-1],[0,-0.25881905,0.96592583,0],[0,0,0,0],[9E9,9E9,9E9,9E9,9E9,9E9]],v114,z1,tADSK23\WObj:=wADSK0;
    MoveL [[566.765,-1131.738,-1],[0,-0.25881905,0.96592583,0],[0,0,0,0],[9E9,9E9,9E9,9E9,9E9,9E9]],v114,z1,tADSK23\WObj:=wADSK0;
    MoveL [[565.219,-1132.77,-1],[0,-0.25881905,0.96592583,0],[0,0,0,0],[9E9,9E9,9E9,9E9,9E9,9E9]],v114,z1,tADSK23\WObj:=wADSK0;
    MoveL [[563.397,-1133.132,-1],[0,-0.25881905,0.96592583,0],[0,0,0,0],[9E9,9E9,9E9,9E9,9E9,9E9]],v114,z1,tADSK23\WObj:=wADSK0;
    MoveL [[68.097,-1133.132,-1],[0,-0.25881905,0.96592583,0],[0,0,0,0],[9E9,9E9,9E9,9E9,9E9,9E9]],v114,z1,tADSK23\WObj:=wADSK0;
    MoveL [[66.274,-1132.77,-1],[0,-0.25881905,0.96592583,0],[0,0,0,0],[9E9,9E9,9E9,9E9,9E9,9E9]],v114,z1,tADSK23\WObj:=wADSK0;
    MoveL [[64.729,-1131.738,-1],[0,-0.25881905,0.96592583,0],[0,0,0,0],[9E9,9E9,9E9,9E9,9E9,9E9]],v114,z1,tADSK23\WObj:=wADSK0;
    MoveL [[63.697,-1130.193,-1],[0,-0.25881905,0.96592583,0],[0,0,0,0],[9E9,9E9,9E9,9E9,9E9,9E9]],v114,z1,tADSK23\WObj:=wADSK0;
    MoveL [[63.334,-1128.37,-1],[0,-0.25881905,0.96592583,0],[0,0,0,0],[9E9,9E9,9E9,9E9,9E9,9E9]],v114,z1,tADSK23\WObj:=wADSK0;
    MoveL [[63.334,-137.765,-1],[0,-0.25881905,0.96592583,0],[0,0,0,0],[9E9,9E9,9E9,9E9,9E9,9E9]],v114,z1,tADSK23\WObj:=wADSK0;
    MoveL [[63.699,-135.938,-1],[0,-0.25881905,0.96592583,0],[0,0,0,0],[9E9,9E9,9E9,9E9,9E9,9E9]],v114,z1,tADSK23\WObj:=wADSK0;
    MoveL [[64.737,-134.39,-1],[0,-0.25881905,0.96592583,0],[0,0,0,0],[9E9,9E9,9E9,9E9,9E9,9E9]],v114,z1,tADSK23\WObj:=wADSK0;
    MoveL [[66.289,-133.359,-1],[0,-0.25881905,0.96592583,0],[0,0,0,0],[9E9,9E9,9E9,9E9,9E9,9E9]],v114,z1,tADSK23\WObj:=wADSK0;
    MoveL [[68.118,-133.003,-1],[0,-0.25881905,0.96592583,0],[0,0,0,0],[9E9,9E9,9E9,9E9,9E9,9E9]],v114,z1,tADSK23\WObj:=wADSK0;
    MoveL [[563.418,-135.228,-1],[0,-0.25881905,0.96592583,0],[0,0,0,0],[9E9,9E9,9E9,9E9,9E9,9E9]],v114,z1,tADSK23\WObj:=wADSK0;
    MoveL [[565.234,-135.596,-1],[0,-0.25881905,0.96592583,0],[0,0,0,0],[9E9,9E9,9E9,9E9,9E9,9E9]],v114,z1,tADSK23\WObj:=wADSK0;
    MoveL [[566.772,-136.63,-1],[0,-0.25881905,0.96592583,0],[0,0,0,0],[9E9,9E9,9E9,9E9,9E9,9E9]],v114,z1,tADSK23\WObj:=wADSK0;
    MoveL [[567.799,-138.172,-1],[0,-0.25881905,0.96592583,0],[0,0,0,0],[9E9,9E9,9E9,9E9,9E9,9E9]],v114,z1,tADSK23\WObj:=wADSK0;
    MoveL [[568.159,-139.99,-1],[0,-0.25881905,0.96592583,0],[0,0,0,0],[9E9,9E9,9E9,9E9,9E9,9E9]],v114,z1,tADSK23\WObj:=wADSK0;
    MoveL [[568.159,-184.818,-1],[0,-0.25881905,0.96592583,0],[0,0,0,0],[9E9,9E9,9E9,9E9,9E9,9E9]],v114,z1,tADSK23\WObj:=wADSK0;
    ! Lead Out Move Starts
    MoveL [[568.438,-185.492,-1],[0,-0.25881905,0.96592583,0],[0,0,0,0],[9E9,9E9,9E9,9E9,9E9,9E9]],v114,z1,tADSK23\WObj:=wADSK0;
    MoveL [[569.112,-185.77,-1],[0,-0.25881905,0.96592583,0],[0,0,0,0],[9E9,9E9,9E9,9E9,9E9,9E9]],v114,z1,tADSK23\WObj:=wADSK0;
    MoveL [[570.065,-185.77,-1],[0,-0.25881905,0.96592583,0],[0,0,0,0],[9E9,9E9,9E9,9E9,9E9,9E9]],v114,z1,tADSK23\WObj:=wADSK0;
    MoveL [[570.738,-185.77,-0.721],[0,-0.25881905,0.96592583,0],[0,0,0,0],[9E9,9E9,9E9,9E9,9E9,9E9]],v114,z1,tADSK23\WObj:=wADSK0;
    MoveL [[571.017,-185.77,-0.048],[0,-0.25881905,0.96592583,0],[0,0,0,0],[9E9,9E9,9E9,9E9,9E9,9E9]],v114,z1,tADSK23\WObj:=wADSK0;
    ! Rapid Move Starts
    MoveL [[571.017,-185.77,25.525],[0,-0.25881905,0.96592583,0],[0,0,0,0],[9E9,9E9,9E9,9E9,9E9,9E9]],v17,z1,tADSK23\WObj:=wADSK0;
  ENDPROC
ENDMODULE
