%%%
  VERSION:1
  LANGUAGE:ENGLISH
%%%

MODULE m2D_Contour58
  PROC p2D_Contour58()
    MoveAbsJ [[0,0,5,-70,40,70],[9E9,9E9,9E9,9E9,9E9,9E9]]\NoEOffs,v17,fine,tADSK23;
    MoveL [[1119.97,-161.436,25.525],[0,-0.25881905,0.96592583,0],[0,0,0,0],[9E9,9E9,9E9,9E9,9E9,9E9]],v17,z1,tADSK23\WObj:=wADSK0;
    MoveL [[1119.97,-161.436,15.525],[0,-0.25881905,0.96592583,0],[0,0,0,0],[9E9,9E9,9E9,9E9,9E9,9E9]],v17,z1,tADSK23\WObj:=wADSK0;
    ! Plunge Move Starts
    MoveL [[1119.97,-161.436,11.525],[0,-0.25881905,0.96592583,0],[0,0,0,0],[9E9,9E9,9E9,9E9,9E9,9E9]],v38,z1,tADSK23\WObj:=wADSK0;
    MoveL [[1119.97,-161.436,-0.048],[0,-0.25881905,0.96592583,0],[0,0,0,0],[9E9,9E9,9E9,9E9,9E9,9E9]],v38,z1,tADSK23\WObj:=wADSK0;
    ! Lead In Move Starts
    MoveL [[1119.691,-161.436,-0.721],[0,-0.25881905,0.96592583,0],[0,0,0,0],[9E9,9E9,9E9,9E9,9E9,9E9]],v114,z1,tADSK23\WObj:=wADSK0;
    MoveL [[1119.017,-161.436,-1],[0,-0.25881905,0.96592583,0],[0,0,0,0],[9E9,9E9,9E9,9E9,9E9,9E9]],v114,z1,tADSK23\WObj:=wADSK0;
    MoveL [[1118.065,-161.436,-1],[0,-0.25881905,0.96592583,0],[0,0,0,0],[9E9,9E9,9E9,9E9,9E9,9E9]],v114,z1,tADSK23\WObj:=wADSK0;
    MoveL [[1117.391,-161.716,-1],[0,-0.25881905,0.96592583,0],[0,0,0,0],[9E9,9E9,9E9,9E9,9E9,9E9]],v114,z1,tADSK23\WObj:=wADSK0;
    MoveL [[1117.113,-162.389,-1],[0,-0.25881905,0.96592583,0],[0,0,0,0],[9E9,9E9,9E9,9E9,9E9,9E9]],v114,z1,tADSK23\WObj:=wADSK0;
    ! Cutting Move Starts
    MoveL [[1117.113,-1125.73,-1],[0,-0.25881905,0.96592583,0],[0,0,0,0],[9E9,9E9,9E9,9E9,9E9,9E9]],v114,z1,tADSK23\WObj:=wADSK0;
    MoveL [[1116.75,-1127.553,-1],[0,-0.25881905,0.96592583,0],[0,0,0,0],[9E9,9E9,9E9,9E9,9E9,9E9]],v114,z1,tADSK23\WObj:=wADSK0;
    MoveL [[1115.718,-1129.098,-1],[0,-0.25881905,0.96592583,0],[0,0,0,0],[9E9,9E9,9E9,9E9,9E9,9E9]],v114,z1,tADSK23\WObj:=wADSK0;
    MoveL [[1114.173,-1130.13,-1],[0,-0.25881905,0.96592583,0],[0,0,0,0],[9E9,9E9,9E9,9E9,9E9,9E9]],v114,z1,tADSK23\WObj:=wADSK0;
    MoveL [[1112.35,-1130.493,-1],[0,-0.25881905,0.96592583,0],[0,0,0,0],[9E9,9E9,9E9,9E9,9E9,9E9]],v114,z1,tADSK23\WObj:=wADSK0;
    MoveL [[617.053,-1130.493,-1],[0,-0.25881905,0.96592583,0],[0,0,0,0],[9E9,9E9,9E9,9E9,9E9,9E9]],v114,z1,tADSK23\WObj:=wADSK0;
    MoveL [[615.23,-1130.13,-1],[0,-0.25881905,0.96592583,0],[0,0,0,0],[9E9,9E9,9E9,9E9,9E9,9E9]],v114,z1,tADSK23\WObj:=wADSK0;
    MoveL [[613.685,-1129.098,-1],[0,-0.25881905,0.96592583,0],[0,0,0,0],[9E9,9E9,9E9,9E9,9E9,9E9]],v114,z1,tADSK23\WObj:=wADSK0;
    MoveL [[612.653,-1127.553,-1],[0,-0.25881905,0.96592583,0],[0,0,0,0],[9E9,9E9,9E9,9E9,9E9,9E9]],v114,z1,tADSK23\WObj:=wADSK0;
    MoveL [[612.291,-1125.73,-1],[0,-0.25881905,0.96592583,0],[0,0,0,0],[9E9,9E9,9E9,9E9,9E9,9E9]],v114,z1,tADSK23\WObj:=wADSK0;
    MoveL [[612.291,-135.134,-1],[0,-0.25881905,0.96592583,0],[0,0,0,0],[9E9,9E9,9E9,9E9,9E9,9E9]],v114,z1,tADSK23\WObj:=wADSK0;
    MoveL [[612.653,-133.311,-1],[0,-0.25881905,0.96592583,0],[0,0,0,0],[9E9,9E9,9E9,9E9,9E9,9E9]],v114,z1,tADSK23\WObj:=wADSK0;
    MoveL [[613.685,-131.766,-1],[0,-0.25881905,0.96592583,0],[0,0,0,0],[9E9,9E9,9E9,9E9,9E9,9E9]],v114,z1,tADSK23\WObj:=wADSK0;
    MoveL [[615.23,-130.734,-1],[0,-0.25881905,0.96592583,0],[0,0,0,0],[9E9,9E9,9E9,9E9,9E9,9E9]],v114,z1,tADSK23\WObj:=wADSK0;
    MoveL [[617.053,-130.372,-1],[0,-0.25881905,0.96592583,0],[0,0,0,0],[9E9,9E9,9E9,9E9,9E9,9E9]],v114,z1,tADSK23\WObj:=wADSK0;
    MoveL [[1112.35,-130.372,-1],[0,-0.25881905,0.96592583,0],[0,0,0,0],[9E9,9E9,9E9,9E9,9E9,9E9]],v114,z1,tADSK23\WObj:=wADSK0;
    MoveL [[1114.173,-130.734,-1],[0,-0.25881905,0.96592583,0],[0,0,0,0],[9E9,9E9,9E9,9E9,9E9,9E9]],v114,z1,tADSK23\WObj:=wADSK0;
    MoveL [[1115.718,-131.766,-1],[0,-0.25881905,0.96592583,0],[0,0,0,0],[9E9,9E9,9E9,9E9,9E9,9E9]],v114,z1,tADSK23\WObj:=wADSK0;
    MoveL [[1116.75,-133.311,-1],[0,-0.25881905,0.96592583,0],[0,0,0,0],[9E9,9E9,9E9,9E9,9E9,9E9]],v114,z1,tADSK23\WObj:=wADSK0;
    MoveL [[1117.113,-135.134,-1],[0,-0.25881905,0.96592583,0],[0,0,0,0],[9E9,9E9,9E9,9E9,9E9,9E9]],v114,z1,tADSK23\WObj:=wADSK0;
    MoveL [[1117.113,-162.389,-1],[0,-0.25881905,0.96592583,0],[0,0,0,0],[9E9,9E9,9E9,9E9,9E9,9E9]],v114,z1,tADSK23\WObj:=wADSK0;
    ! Lead Out Move Starts
    MoveL [[1117.391,-163.062,-1],[0,-0.25881905,0.96592583,0],[0,0,0,0],[9E9,9E9,9E9,9E9,9E9,9E9]],v114,z1,tADSK23\WObj:=wADSK0;
    MoveL [[1118.065,-163.342,-1],[0,-0.25881905,0.96592583,0],[0,0,0,0],[9E9,9E9,9E9,9E9,9E9,9E9]],v114,z1,tADSK23\WObj:=wADSK0;
    MoveL [[1119.017,-163.342,-1],[0,-0.25881905,0.96592583,0],[0,0,0,0],[9E9,9E9,9E9,9E9,9E9,9E9]],v114,z1,tADSK23\WObj:=wADSK0;
    MoveL [[1119.691,-163.342,-0.721],[0,-0.25881905,0.96592583,0],[0,0,0,0],[9E9,9E9,9E9,9E9,9E9,9E9]],v114,z1,tADSK23\WObj:=wADSK0;
    MoveL [[1119.97,-163.342,-0.048],[0,-0.25881905,0.96592583,0],[0,0,0,0],[9E9,9E9,9E9,9E9,9E9,9E9]],v114,z1,tADSK23\WObj:=wADSK0;
    ! Rapid Move Starts
    MoveL [[1119.97,-163.342,25.525],[0,-0.25881905,0.96592583,0],[0,0,0,0],[9E9,9E9,9E9,9E9,9E9,9E9]],v17,z1,tADSK23\WObj:=wADSK0;
  ENDPROC
ENDMODULE
