%%%
  VERSION:1
  LANGUAGE:ENGLISH
%%%

MODULE m2D_Contour70
  PROC p2D_Contour70()
    MoveAbsJ [[0,0,5,-70,40,70],[9E9,9E9,9E9,9E9,9E9,9E9]]\NoEOffs,v17,fine,tADSK23;
    MoveL [[563.538,-1062.738,25.525],[0,-0.25881905,0.96592583,0],[0,0,0,0],[9E9,9E9,9E9,9E9,9E9,9E9]],v17,z1,tADSK23\WObj:=wADSK0;
    MoveL [[563.538,-1062.738,15.525],[0,-0.25881905,0.96592583,0],[0,0,0,0],[9E9,9E9,9E9,9E9,9E9,9E9]],v17,z1,tADSK23\WObj:=wADSK0;
    ! Plunge Move Starts
    MoveL [[563.538,-1062.738,11.525],[0,-0.25881905,0.96592583,0],[0,0,0,0],[9E9,9E9,9E9,9E9,9E9,9E9]],v38,z1,tADSK23\WObj:=wADSK0;
    MoveL [[563.538,-1062.738,-0.048],[0,-0.25881905,0.96592583,0],[0,0,0,0],[9E9,9E9,9E9,9E9,9E9,9E9]],v38,z1,tADSK23\WObj:=wADSK0;
    ! Lead In Move Starts
    MoveL [[563.259,-1062.738,-0.721],[0,-0.25881905,0.96592583,0],[0,0,0,0],[9E9,9E9,9E9,9E9,9E9,9E9]],v114,z1,tADSK23\WObj:=wADSK0;
    MoveL [[562.586,-1062.738,-1],[0,-0.25881905,0.96592583,0],[0,0,0,0],[9E9,9E9,9E9,9E9,9E9,9E9]],v114,z1,tADSK23\WObj:=wADSK0;
    MoveL [[561.633,-1062.738,-1],[0,-0.25881905,0.96592583,0],[0,0,0,0],[9E9,9E9,9E9,9E9,9E9,9E9]],v114,z1,tADSK23\WObj:=wADSK0;
    MoveL [[560.96,-1063.016,-1],[0,-0.25881905,0.96592583,0],[0,0,0,0],[9E9,9E9,9E9,9E9,9E9,9E9]],v114,z1,tADSK23\WObj:=wADSK0;
    MoveL [[560.68,-1063.69,-1],[0,-0.25881905,0.96592583,0],[0,0,0,0],[9E9,9E9,9E9,9E9,9E9,9E9]],v114,z1,tADSK23\WObj:=wADSK0;
    ! Cutting Move Starts
    MoveL [[560.68,-1105.24,-1],[0,-0.25881905,0.96592583,0],[0,0,0,0],[9E9,9E9,9E9,9E9,9E9,9E9]],v114,z1,tADSK23\WObj:=wADSK0;
    MoveL [[560.318,-1107.063,-1],[0,-0.25881905,0.96592583,0],[0,0,0,0],[9E9,9E9,9E9,9E9,9E9,9E9]],v114,z1,tADSK23\WObj:=wADSK0;
    MoveL [[559.286,-1108.608,-1],[0,-0.25881905,0.96592583,0],[0,0,0,0],[9E9,9E9,9E9,9E9,9E9,9E9]],v114,z1,tADSK23\WObj:=wADSK0;
    MoveL [[557.741,-1109.64,-1],[0,-0.25881905,0.96592583,0],[0,0,0,0],[9E9,9E9,9E9,9E9,9E9,9E9]],v114,z1,tADSK23\WObj:=wADSK0;
    MoveL [[555.918,-1110.002,-1],[0,-0.25881905,0.96592583,0],[0,0,0,0],[9E9,9E9,9E9,9E9,9E9,9E9]],v114,z1,tADSK23\WObj:=wADSK0;
    MoveL [[60.618,-1110.002,-1],[0,-0.25881905,0.96592583,0],[0,0,0,0],[9E9,9E9,9E9,9E9,9E9,9E9]],v114,z1,tADSK23\WObj:=wADSK0;
    MoveL [[58.796,-1109.64,-1],[0,-0.25881905,0.96592583,0],[0,0,0,0],[9E9,9E9,9E9,9E9,9E9,9E9]],v114,z1,tADSK23\WObj:=wADSK0;
    MoveL [[57.251,-1108.608,-1],[0,-0.25881905,0.96592583,0],[0,0,0,0],[9E9,9E9,9E9,9E9,9E9,9E9]],v114,z1,tADSK23\WObj:=wADSK0;
    MoveL [[56.218,-1107.063,-1],[0,-0.25881905,0.96592583,0],[0,0,0,0],[9E9,9E9,9E9,9E9,9E9,9E9]],v114,z1,tADSK23\WObj:=wADSK0;
    MoveL [[55.856,-1105.24,-1],[0,-0.25881905,0.96592583,0],[0,0,0,0],[9E9,9E9,9E9,9E9,9E9,9E9]],v114,z1,tADSK23\WObj:=wADSK0;
    MoveL [[55.856,-114.635,-1],[0,-0.25881905,0.96592583,0],[0,0,0,0],[9E9,9E9,9E9,9E9,9E9,9E9]],v114,z1,tADSK23\WObj:=wADSK0;
    MoveL [[56.218,-112.812,-1],[0,-0.25881905,0.96592583,0],[0,0,0,0],[9E9,9E9,9E9,9E9,9E9,9E9]],v114,z1,tADSK23\WObj:=wADSK0;
    MoveL [[57.251,-111.267,-1],[0,-0.25881905,0.96592583,0],[0,0,0,0],[9E9,9E9,9E9,9E9,9E9,9E9]],v114,z1,tADSK23\WObj:=wADSK0;
    MoveL [[58.796,-110.235,-1],[0,-0.25881905,0.96592583,0],[0,0,0,0],[9E9,9E9,9E9,9E9,9E9,9E9]],v114,z1,tADSK23\WObj:=wADSK0;
    MoveL [[60.618,-109.872,-1],[0,-0.25881905,0.96592583,0],[0,0,0,0],[9E9,9E9,9E9,9E9,9E9,9E9]],v114,z1,tADSK23\WObj:=wADSK0;
    MoveL [[555.918,-109.872,-1],[0,-0.25881905,0.96592583,0],[0,0,0,0],[9E9,9E9,9E9,9E9,9E9,9E9]],v114,z1,tADSK23\WObj:=wADSK0;
    MoveL [[557.741,-110.235,-1],[0,-0.25881905,0.96592583,0],[0,0,0,0],[9E9,9E9,9E9,9E9,9E9,9E9]],v114,z1,tADSK23\WObj:=wADSK0;
    MoveL [[559.286,-111.267,-1],[0,-0.25881905,0.96592583,0],[0,0,0,0],[9E9,9E9,9E9,9E9,9E9,9E9]],v114,z1,tADSK23\WObj:=wADSK0;
    MoveL [[560.318,-112.812,-1],[0,-0.25881905,0.96592583,0],[0,0,0,0],[9E9,9E9,9E9,9E9,9E9,9E9]],v114,z1,tADSK23\WObj:=wADSK0;
    MoveL [[560.68,-114.635,-1],[0,-0.25881905,0.96592583,0],[0,0,0,0],[9E9,9E9,9E9,9E9,9E9,9E9]],v114,z1,tADSK23\WObj:=wADSK0;
    MoveL [[560.68,-1063.69,-1],[0,-0.25881905,0.96592583,0],[0,0,0,0],[9E9,9E9,9E9,9E9,9E9,9E9]],v114,z1,tADSK23\WObj:=wADSK0;
    ! Lead Out Move Starts
    MoveL [[560.959,-1064.363,-1],[0,-0.25881905,0.96592583,0],[0,0,0,0],[9E9,9E9,9E9,9E9,9E9,9E9]],v114,z1,tADSK23\WObj:=wADSK0;
    MoveL [[561.633,-1064.642,-1],[0,-0.25881905,0.96592583,0],[0,0,0,0],[9E9,9E9,9E9,9E9,9E9,9E9]],v114,z1,tADSK23\WObj:=wADSK0;
    MoveL [[562.586,-1064.642,-1],[0,-0.25881905,0.96592583,0],[0,0,0,0],[9E9,9E9,9E9,9E9,9E9,9E9]],v114,z1,tADSK23\WObj:=wADSK0;
    MoveL [[563.259,-1064.642,-0.721],[0,-0.25881905,0.96592583,0],[0,0,0,0],[9E9,9E9,9E9,9E9,9E9,9E9]],v114,z1,tADSK23\WObj:=wADSK0;
    MoveL [[563.538,-1064.642,-0.048],[0,-0.25881905,0.96592583,0],[0,0,0,0],[9E9,9E9,9E9,9E9,9E9,9E9]],v114,z1,tADSK23\WObj:=wADSK0;
    ! Rapid Move Starts
    MoveL [[563.538,-1064.642,25.525],[0,-0.25881905,0.96592583,0],[0,0,0,0],[9E9,9E9,9E9,9E9,9E9,9E9]],v17,z1,tADSK23\WObj:=wADSK0;
  ENDPROC
ENDMODULE
