%%%
  VERSION:1
  LANGUAGE:ENGLISH
%%%

MODULE m2D_Contour67
  PROC p2D_Contour67()
    MoveAbsJ [[0,0,5,-70,40,70],[9E9,9E9,9E9,9E9,9E9,9E9]]\NoEOffs,v17,fine,tADSK23;
    MoveL [[1223.13,-703.555,25.525],[0,-0.25881905,0.96592583,0],[0,0,0,0],[9E9,9E9,9E9,9E9,9E9,9E9]],v17,z1,tADSK23\WObj:=wADSK0;
    MoveL [[1223.13,-703.555,15.525],[0,-0.25881905,0.96592583,0],[0,0,0,0],[9E9,9E9,9E9,9E9,9E9,9E9]],v17,z1,tADSK23\WObj:=wADSK0;
    ! Plunge Move Starts
    MoveL [[1223.13,-703.555,11.525],[0,-0.25881905,0.96592583,0],[0,0,0,0],[9E9,9E9,9E9,9E9,9E9,9E9]],v38,z1,tADSK23\WObj:=wADSK0;
    MoveL [[1223.13,-703.555,-0.048],[0,-0.25881905,0.96592583,0],[0,0,0,0],[9E9,9E9,9E9,9E9,9E9,9E9]],v38,z1,tADSK23\WObj:=wADSK0;
    ! Lead In Move Starts
    MoveL [[1222.851,-703.555,-0.721],[0,-0.25881905,0.96592583,0],[0,0,0,0],[9E9,9E9,9E9,9E9,9E9,9E9]],v114,z1,tADSK23\WObj:=wADSK0;
    MoveL [[1222.177,-703.555,-1],[0,-0.25881905,0.96592583,0],[0,0,0,0],[9E9,9E9,9E9,9E9,9E9,9E9]],v114,z1,tADSK23\WObj:=wADSK0;
    MoveL [[1221.225,-703.555,-1],[0,-0.25881905,0.96592583,0],[0,0,0,0],[9E9,9E9,9E9,9E9,9E9,9E9]],v114,z1,tADSK23\WObj:=wADSK0;
    MoveL [[1220.551,-703.834,-1],[0,-0.25881905,0.96592583,0],[0,0,0,0],[9E9,9E9,9E9,9E9,9E9,9E9]],v114,z1,tADSK23\WObj:=wADSK0;
    MoveL [[1220.272,-704.508,-1],[0,-0.25881905,0.96592583,0],[0,0,0,0],[9E9,9E9,9E9,9E9,9E9,9E9]],v114,z1,tADSK23\WObj:=wADSK0;
    ! Cutting Move Starts
    MoveL [[1220.272,-1135.157,-1],[0,-0.25881905,0.96592583,0],[0,0,0,0],[9E9,9E9,9E9,9E9,9E9,9E9]],v114,z1,tADSK23\WObj:=wADSK0;
    MoveL [[1521.897,-1135.157,-1],[0,-0.25881905,0.96592583,0],[0,0,0,0],[9E9,9E9,9E9,9E9,9E9,9E9]],v114,z1,tADSK23\WObj:=wADSK0;
    MoveL [[1521.897,-677.959,-1],[0,-0.25881905,0.96592583,0],[0,0,0,0],[9E9,9E9,9E9,9E9,9E9,9E9]],v114,z1,tADSK23\WObj:=wADSK0;
    MoveL [[1220.272,-677.959,-1],[0,-0.25881905,0.96592583,0],[0,0,0,0],[9E9,9E9,9E9,9E9,9E9,9E9]],v114,z1,tADSK23\WObj:=wADSK0;
    MoveL [[1220.272,-704.508,-1],[0,-0.25881905,0.96592583,0],[0,0,0,0],[9E9,9E9,9E9,9E9,9E9,9E9]],v114,z1,tADSK23\WObj:=wADSK0;
    ! Lead Out Move Starts
    MoveL [[1220.551,-705.182,-1],[0,-0.25881905,0.96592583,0],[0,0,0,0],[9E9,9E9,9E9,9E9,9E9,9E9]],v114,z1,tADSK23\WObj:=wADSK0;
    MoveL [[1221.225,-705.461,-1],[0,-0.25881905,0.96592583,0],[0,0,0,0],[9E9,9E9,9E9,9E9,9E9,9E9]],v114,z1,tADSK23\WObj:=wADSK0;
    MoveL [[1222.177,-705.461,-1],[0,-0.25881905,0.96592583,0],[0,0,0,0],[9E9,9E9,9E9,9E9,9E9,9E9]],v114,z1,tADSK23\WObj:=wADSK0;
    MoveL [[1222.851,-705.461,-0.721],[0,-0.25881905,0.96592583,0],[0,0,0,0],[9E9,9E9,9E9,9E9,9E9,9E9]],v114,z1,tADSK23\WObj:=wADSK0;
    MoveL [[1223.13,-705.461,-0.048],[0,-0.25881905,0.96592583,0],[0,0,0,0],[9E9,9E9,9E9,9E9,9E9,9E9]],v114,z1,tADSK23\WObj:=wADSK0;
    ! Rapid Move Starts
    MoveL [[1223.13,-705.461,15.525],[0,-0.25881905,0.96592583,0],[0,0,0,0],[9E9,9E9,9E9,9E9,9E9,9E9]],v17,z1,tADSK23\WObj:=wADSK0;
    MoveL [[1189.177,-627.477,15.525],[0,-0.25881905,0.96592583,0],[0,0,0,0],[9E9,9E9,9E9,9E9,9E9,9E9]],v17,z1,tADSK23\WObj:=wADSK0;
    ! Plunge Move Starts
    MoveL [[1189.177,-627.477,11.525],[0,-0.25881905,0.96592583,0],[0,0,0,0],[9E9,9E9,9E9,9E9,9E9,9E9]],v38,z1,tADSK23\WObj:=wADSK0;
    MoveL [[1189.177,-627.477,-0.048],[0,-0.25881905,0.96592583,0],[0,0,0,0],[9E9,9E9,9E9,9E9,9E9,9E9]],v38,z1,tADSK23\WObj:=wADSK0;
    ! Lead In Move Starts
    MoveL [[1189.177,-627.756,-0.721],[0,-0.25881905,0.96592583,0],[0,0,0,0],[9E9,9E9,9E9,9E9,9E9,9E9]],v114,z1,tADSK23\WObj:=wADSK0;
    MoveL [[1189.177,-628.43,-1],[0,-0.25881905,0.96592583,0],[0,0,0,0],[9E9,9E9,9E9,9E9,9E9,9E9]],v114,z1,tADSK23\WObj:=wADSK0;
    MoveL [[1189.177,-629.382,-1],[0,-0.25881905,0.96592583,0],[0,0,0,0],[9E9,9E9,9E9,9E9,9E9,9E9]],v114,z1,tADSK23\WObj:=wADSK0;
    MoveL [[1189.456,-630.056,-1],[0,-0.25881905,0.96592583,0],[0,0,0,0],[9E9,9E9,9E9,9E9,9E9,9E9]],v114,z1,tADSK23\WObj:=wADSK0;
    MoveL [[1190.13,-630.334,-1],[0,-0.25881905,0.96592583,0],[0,0,0,0],[9E9,9E9,9E9,9E9,9E9,9E9]],v114,z1,tADSK23\WObj:=wADSK0;
    ! Cutting Move Starts
    MoveL [[2390.26,-630.334,-1],[0,-0.25881905,0.96592583,0],[0,0,0,0],[9E9,9E9,9E9,9E9,9E9,9E9]],v114,z1,tADSK23\WObj:=wADSK0;
    MoveL [[2392.083,-630.697,-1],[0,-0.25881905,0.96592583,0],[0,0,0,0],[9E9,9E9,9E9,9E9,9E9,9E9]],v114,z1,tADSK23\WObj:=wADSK0;
    MoveL [[2393.628,-631.729,-1],[0,-0.25881905,0.96592583,0],[0,0,0,0],[9E9,9E9,9E9,9E9,9E9,9E9]],v114,z1,tADSK23\WObj:=wADSK0;
    MoveL [[2394.66,-633.274,-1],[0,-0.25881905,0.96592583,0],[0,0,0,0],[9E9,9E9,9E9,9E9,9E9,9E9]],v114,z1,tADSK23\WObj:=wADSK0;
    MoveL [[2395.022,-635.097,-1],[0,-0.25881905,0.96592583,0],[0,0,0,0],[9E9,9E9,9E9,9E9,9E9,9E9]],v114,z1,tADSK23\WObj:=wADSK0;
    MoveL [[2395.022,-1178.02,-1],[0,-0.25881905,0.96592583,0],[0,0,0,0],[9E9,9E9,9E9,9E9,9E9,9E9]],v114,z1,tADSK23\WObj:=wADSK0;
    MoveL [[2394.66,-1179.843,-1],[0,-0.25881905,0.96592583,0],[0,0,0,0],[9E9,9E9,9E9,9E9,9E9,9E9]],v114,z1,tADSK23\WObj:=wADSK0;
    MoveL [[2393.628,-1181.388,-1],[0,-0.25881905,0.96592583,0],[0,0,0,0],[9E9,9E9,9E9,9E9,9E9,9E9]],v114,z1,tADSK23\WObj:=wADSK0;
    MoveL [[2392.083,-1182.42,-1],[0,-0.25881905,0.96592583,0],[0,0,0,0],[9E9,9E9,9E9,9E9,9E9,9E9]],v114,z1,tADSK23\WObj:=wADSK0;
    MoveL [[2390.26,-1182.782,-1],[0,-0.25881905,0.96592583,0],[0,0,0,0],[9E9,9E9,9E9,9E9,9E9,9E9]],v114,z1,tADSK23\WObj:=wADSK0;
    MoveL [[1177.41,-1182.782,-1],[0,-0.25881905,0.96592583,0],[0,0,0,0],[9E9,9E9,9E9,9E9,9E9,9E9]],v114,z1,tADSK23\WObj:=wADSK0;
    MoveL [[1175.588,-1182.42,-1],[0,-0.25881905,0.96592583,0],[0,0,0,0],[9E9,9E9,9E9,9E9,9E9,9E9]],v114,z1,tADSK23\WObj:=wADSK0;
    MoveL [[1174.042,-1181.388,-1],[0,-0.25881905,0.96592583,0],[0,0,0,0],[9E9,9E9,9E9,9E9,9E9,9E9]],v114,z1,tADSK23\WObj:=wADSK0;
    MoveL [[1173.01,-1179.843,-1],[0,-0.25881905,0.96592583,0],[0,0,0,0],[9E9,9E9,9E9,9E9,9E9,9E9]],v114,z1,tADSK23\WObj:=wADSK0;
    MoveL [[1172.647,-1178.02,-1],[0,-0.25881905,0.96592583,0],[0,0,0,0],[9E9,9E9,9E9,9E9,9E9,9E9]],v114,z1,tADSK23\WObj:=wADSK0;
    MoveL [[1172.647,-635.097,-1],[0,-0.25881905,0.96592583,0],[0,0,0,0],[9E9,9E9,9E9,9E9,9E9,9E9]],v114,z1,tADSK23\WObj:=wADSK0;
    MoveL [[1173.01,-633.274,-1],[0,-0.25881905,0.96592583,0],[0,0,0,0],[9E9,9E9,9E9,9E9,9E9,9E9]],v114,z1,tADSK23\WObj:=wADSK0;
    MoveL [[1174.042,-631.729,-1],[0,-0.25881905,0.96592583,0],[0,0,0,0],[9E9,9E9,9E9,9E9,9E9,9E9]],v114,z1,tADSK23\WObj:=wADSK0;
    MoveL [[1175.587,-630.697,-1],[0,-0.25881905,0.96592583,0],[0,0,0,0],[9E9,9E9,9E9,9E9,9E9,9E9]],v114,z1,tADSK23\WObj:=wADSK0;
    MoveL [[1177.41,-630.334,-1],[0,-0.25881905,0.96592583,0],[0,0,0,0],[9E9,9E9,9E9,9E9,9E9,9E9]],v114,z1,tADSK23\WObj:=wADSK0;
    MoveL [[1190.13,-630.334,-1],[0,-0.25881905,0.96592583,0],[0,0,0,0],[9E9,9E9,9E9,9E9,9E9,9E9]],v114,z1,tADSK23\WObj:=wADSK0;
    ! Lead Out Move Starts
    MoveL [[1190.804,-630.056,-1],[0,-0.25881905,0.96592583,0],[0,0,0,0],[9E9,9E9,9E9,9E9,9E9,9E9]],v114,z1,tADSK23\WObj:=wADSK0;
    MoveL [[1191.083,-629.382,-1],[0,-0.25881905,0.96592583,0],[0,0,0,0],[9E9,9E9,9E9,9E9,9E9,9E9]],v114,z1,tADSK23\WObj:=wADSK0;
    MoveL [[1191.083,-628.43,-1],[0,-0.25881905,0.96592583,0],[0,0,0,0],[9E9,9E9,9E9,9E9,9E9,9E9]],v114,z1,tADSK23\WObj:=wADSK0;
    MoveL [[1191.083,-627.756,-0.721],[0,-0.25881905,0.96592583,0],[0,0,0,0],[9E9,9E9,9E9,9E9,9E9,9E9]],v114,z1,tADSK23\WObj:=wADSK0;
    MoveL [[1191.083,-627.477,-0.048],[0,-0.25881905,0.96592583,0],[0,0,0,0],[9E9,9E9,9E9,9E9,9E9,9E9]],v114,z1,tADSK23\WObj:=wADSK0;
    ! Rapid Move Starts
    MoveL [[1191.083,-627.477,25.525],[0,-0.25881905,0.96592583,0],[0,0,0,0],[9E9,9E9,9E9,9E9,9E9,9E9]],v17,z1,tADSK23\WObj:=wADSK0;
  ENDPROC
ENDMODULE
