%%%
  VERSION:1
  LANGUAGE:ENGLISH
%%%

MODULE m2D_Contour69
  PROC p2D_Contour69()
    MoveAbsJ [[0,0,5,-70,40,70],[9E9,9E9,9E9,9E9,9E9,9E9]]\NoEOffs,v17,fine,tADSK23;
    MoveL [[1112.4,-149.542,25.525],[0,-0.25881905,0.96592583,0],[0,0,0,0],[9E9,9E9,9E9,9E9,9E9,9E9]],v17,z1,tADSK23\WObj:=wADSK0;
    MoveL [[1112.4,-149.542,15.525],[0,-0.25881905,0.96592583,0],[0,0,0,0],[9E9,9E9,9E9,9E9,9E9,9E9]],v17,z1,tADSK23\WObj:=wADSK0;
    ! Plunge Move Starts
    MoveL [[1112.4,-149.542,11.525],[0,-0.25881905,0.96592583,0],[0,0,0,0],[9E9,9E9,9E9,9E9,9E9,9E9]],v38,z1,tADSK23\WObj:=wADSK0;
    MoveL [[1112.4,-149.542,-0.048],[0,-0.25881905,0.96592583,0],[0,0,0,0],[9E9,9E9,9E9,9E9,9E9,9E9]],v38,z1,tADSK23\WObj:=wADSK0;
    ! Lead In Move Starts
    MoveL [[1112.121,-149.542,-0.721],[0,-0.25881905,0.96592583,0],[0,0,0,0],[9E9,9E9,9E9,9E9,9E9,9E9]],v114,z1,tADSK23\WObj:=wADSK0;
    MoveL [[1111.448,-149.542,-1],[0,-0.25881905,0.96592583,0],[0,0,0,0],[9E9,9E9,9E9,9E9,9E9,9E9]],v114,z1,tADSK23\WObj:=wADSK0;
    MoveL [[1110.495,-149.542,-1],[0,-0.25881905,0.96592583,0],[0,0,0,0],[9E9,9E9,9E9,9E9,9E9,9E9]],v114,z1,tADSK23\WObj:=wADSK0;
    MoveL [[1109.821,-149.82,-1],[0,-0.25881905,0.96592583,0],[0,0,0,0],[9E9,9E9,9E9,9E9,9E9,9E9]],v114,z1,tADSK23\WObj:=wADSK0;
    MoveL [[1109.542,-150.494,-1],[0,-0.25881905,0.96592583,0],[0,0,0,0],[9E9,9E9,9E9,9E9,9E9,9E9]],v114,z1,tADSK23\WObj:=wADSK0;
    ! Cutting Move Starts
    MoveL [[1109.542,-1107.66,-1],[0,-0.25881905,0.96592583,0],[0,0,0,0],[9E9,9E9,9E9,9E9,9E9,9E9]],v114,z1,tADSK23\WObj:=wADSK0;
    MoveL [[1109.18,-1109.483,-1],[0,-0.25881905,0.96592583,0],[0,0,0,0],[9E9,9E9,9E9,9E9,9E9,9E9]],v114,z1,tADSK23\WObj:=wADSK0;
    MoveL [[1108.148,-1111.028,-1],[0,-0.25881905,0.96592583,0],[0,0,0,0],[9E9,9E9,9E9,9E9,9E9,9E9]],v114,z1,tADSK23\WObj:=wADSK0;
    MoveL [[1106.603,-1112.06,-1],[0,-0.25881905,0.96592583,0],[0,0,0,0],[9E9,9E9,9E9,9E9,9E9,9E9]],v114,z1,tADSK23\WObj:=wADSK0;
    MoveL [[1104.78,-1112.422,-1],[0,-0.25881905,0.96592583,0],[0,0,0,0],[9E9,9E9,9E9,9E9,9E9,9E9]],v114,z1,tADSK23\WObj:=wADSK0;
    MoveL [[609.483,-1112.422,-1],[0,-0.25881905,0.96592583,0],[0,0,0,0],[9E9,9E9,9E9,9E9,9E9,9E9]],v114,z1,tADSK23\WObj:=wADSK0;
    MoveL [[607.66,-1112.06,-1],[0,-0.25881905,0.96592583,0],[0,0,0,0],[9E9,9E9,9E9,9E9,9E9,9E9]],v114,z1,tADSK23\WObj:=wADSK0;
    MoveL [[606.115,-1111.028,-1],[0,-0.25881905,0.96592583,0],[0,0,0,0],[9E9,9E9,9E9,9E9,9E9,9E9]],v114,z1,tADSK23\WObj:=wADSK0;
    MoveL [[605.083,-1109.483,-1],[0,-0.25881905,0.96592583,0],[0,0,0,0],[9E9,9E9,9E9,9E9,9E9,9E9]],v114,z1,tADSK23\WObj:=wADSK0;
    MoveL [[604.721,-1107.66,-1],[0,-0.25881905,0.96592583,0],[0,0,0,0],[9E9,9E9,9E9,9E9,9E9,9E9]],v114,z1,tADSK23\WObj:=wADSK0;
    MoveL [[604.721,-117.064,-1],[0,-0.25881905,0.96592583,0],[0,0,0,0],[9E9,9E9,9E9,9E9,9E9,9E9]],v114,z1,tADSK23\WObj:=wADSK0;
    MoveL [[605.083,-115.241,-1],[0,-0.25881905,0.96592583,0],[0,0,0,0],[9E9,9E9,9E9,9E9,9E9,9E9]],v114,z1,tADSK23\WObj:=wADSK0;
    MoveL [[606.115,-113.696,-1],[0,-0.25881905,0.96592583,0],[0,0,0,0],[9E9,9E9,9E9,9E9,9E9,9E9]],v114,z1,tADSK23\WObj:=wADSK0;
    MoveL [[607.66,-112.664,-1],[0,-0.25881905,0.96592583,0],[0,0,0,0],[9E9,9E9,9E9,9E9,9E9,9E9]],v114,z1,tADSK23\WObj:=wADSK0;
    MoveL [[609.483,-112.301,-1],[0,-0.25881905,0.96592583,0],[0,0,0,0],[9E9,9E9,9E9,9E9,9E9,9E9]],v114,z1,tADSK23\WObj:=wADSK0;
    MoveL [[1104.78,-112.301,-1],[0,-0.25881905,0.96592583,0],[0,0,0,0],[9E9,9E9,9E9,9E9,9E9,9E9]],v114,z1,tADSK23\WObj:=wADSK0;
    MoveL [[1106.603,-112.664,-1],[0,-0.25881905,0.96592583,0],[0,0,0,0],[9E9,9E9,9E9,9E9,9E9,9E9]],v114,z1,tADSK23\WObj:=wADSK0;
    MoveL [[1108.148,-113.696,-1],[0,-0.25881905,0.96592583,0],[0,0,0,0],[9E9,9E9,9E9,9E9,9E9,9E9]],v114,z1,tADSK23\WObj:=wADSK0;
    MoveL [[1109.18,-115.241,-1],[0,-0.25881905,0.96592583,0],[0,0,0,0],[9E9,9E9,9E9,9E9,9E9,9E9]],v114,z1,tADSK23\WObj:=wADSK0;
    MoveL [[1109.542,-117.064,-1],[0,-0.25881905,0.96592583,0],[0,0,0,0],[9E9,9E9,9E9,9E9,9E9,9E9]],v114,z1,tADSK23\WObj:=wADSK0;
    MoveL [[1109.542,-150.494,-1],[0,-0.25881905,0.96592583,0],[0,0,0,0],[9E9,9E9,9E9,9E9,9E9,9E9]],v114,z1,tADSK23\WObj:=wADSK0;
    ! Lead Out Move Starts
    MoveL [[1109.821,-151.168,-1],[0,-0.25881905,0.96592583,0],[0,0,0,0],[9E9,9E9,9E9,9E9,9E9,9E9]],v114,z1,tADSK23\WObj:=wADSK0;
    MoveL [[1110.495,-151.447,-1],[0,-0.25881905,0.96592583,0],[0,0,0,0],[9E9,9E9,9E9,9E9,9E9,9E9]],v114,z1,tADSK23\WObj:=wADSK0;
    MoveL [[1111.448,-151.447,-1],[0,-0.25881905,0.96592583,0],[0,0,0,0],[9E9,9E9,9E9,9E9,9E9,9E9]],v114,z1,tADSK23\WObj:=wADSK0;
    MoveL [[1112.121,-151.447,-0.721],[0,-0.25881905,0.96592583,0],[0,0,0,0],[9E9,9E9,9E9,9E9,9E9,9E9]],v114,z1,tADSK23\WObj:=wADSK0;
    MoveL [[1112.4,-151.447,-0.048],[0,-0.25881905,0.96592583,0],[0,0,0,0],[9E9,9E9,9E9,9E9,9E9,9E9]],v114,z1,tADSK23\WObj:=wADSK0;
    ! Rapid Move Starts
    MoveL [[1112.4,-151.447,25.525],[0,-0.25881905,0.96592583,0],[0,0,0,0],[9E9,9E9,9E9,9E9,9E9,9E9]],v17,z1,tADSK23\WObj:=wADSK0;
  ENDPROC
ENDMODULE
